X:1
T:Bal de Rhuys
C:Bal traditionnel Vannetais, fichier abc : Bernard Loffet
L:1/8
Q:350
K:C
M:3/8
|: [d2G,,2][eG,] | [d2G,,2][BG,] | [G2C,,2][AG,] | [BD,,]A[GG,] | [d2G,,2][eG,] | \
 [d2C,,2][BC,] | [cD,,]B[AD,] | [G2G,,2]G, :| [GG,,]A[BG,] | [A2D,,2]D, | [GG,,]A[BG,] | \
 [c2C,,2]C, | [AD,,]B[cD,] | [dD,,]e[dD,] | [cD,,]B[AD,] | [d2G,,2][dG,] | [GG,,]A[BG,] | \
 [A2D,,2]D, | [GG,,]A[BG,] | [c2C,,2]C, | [AD,,]B[cD,] | [dD,,]e[dD,] | [cD,,]B[AD,] | \
 [G2G,,2]G, | \
W:Created with TablEdit http://www.tabledit.com/ by Bernard Loffet
